Obsidian/status/22s/uget-tray-error.svg

<svg height="22" width="22" xmlns="http://www.w3.org/2000/svg"><path d="m19 10h-4v2h2l-4 5-4-5h2v-6h4v2.0000001h4v-2.0000001s0-3-3-3h-6s-3 0-3 3v1 6h-2v-5.9999999h-2v5.9999999c0 2 2 2 2 2h2v1c0 3 3 3 3 3h6c3 0 3-3 3-3" fill="#5294e2"/></svg>

<svg xmlns="http://www.w3.org/2000/svg" width="22" height="22" version="1.1">
 <defs>
  <style id="current-color-scheme" type="text/css">
   .ColorScheme-Text { color:#d3dae3; } .ColorScheme-Highlight { color:#5294e2; }
  </style>
 </defs>
 <path style="fill:currentColor" class="ColorScheme-Highlight" d="m 19,10 h -4 v 2 h 2 l -4,5 -4,-5 h 2 V 6 h 4 v 2.0000001 h 4 V 6 C 19,6 19,3 16,3 H 10 C 10,3 7,3 7,6 v 1 6 H 5 V 7.0000001 H 3 V 13 c 0,2 2,2 2,2 h 2 v 1 c 0,3 3,3 3,3 h 6 c 3,0 3,-3 3,-3"/>
</svg>
